X: 32
T: MEDLEY: Snow on the Tracks Set
T: Hessian Camp [Country Dance]
C: C: Trad. / Rachel Darling; S: Leveret
C: Set Leaders: Sophie, Tania, Anton
Z: Anton Zille ed., Oleg Naumov arr.; Bregolas / bdh at The Session
N: https://thesession.org/members/26966/sets/92013
R: Country Dance
M: 4/4
L: 1/8
Q: 1/2=100
K: Dmaj
|:"D"D4 "A"E2 DE|"D"F2 D2 D2 E2|"D"F4 "G"G2 FG|"D"A2 F2 F2 G2|
"D"A2 F2 F2 A2|"A"G2 E2 E2 G2|"D"F2 D2 "G"G3F|"A"E8:||
|:"D (Bm)"F2 D2 F2 A2|"A"E2 C2 E2 G2|"D"F2 D2 "G"G3F|"A"E8|
"D"DEFG A2 A2|DEFG A2 A2|"G"B3A G2 F2|1 "A"E8:|2 "A"A8||
T: Snow on the Tracks [March]
R: March
K: Dmaj
z2"D"d2 "A"c2"D"A2|:"G"B2AG "D"F2A2-|AA,DE F2A2|"A"E3E- EEDE|"D"F2 d2 "A"c2"D"A2|
"G"B2AG "D"F2A2-|AA,DE F2A2|"A"E2ED EFED|1 "D"D2 d2 "A"c2"D"A2:|2 "D"D2DE F2A2||
|:"A"E3E- EEDE|"D"F2D2 F2A2|"G"B2BA "A"BdcA|"D"F2DE F2A2|
"A"E3E- EEDE|"D (Bm)"F2D2 F2A2|"G"G3B "A"AGFE|1 "D"D2DE F2A2:|2 "D"D2d2 c2A2||

